Catalina-dark/actions/16/insert-more-mark.svg

<?xml version="1.0" encoding="UTF-8" standalone="no"?>
<svg
   xmlns:dc="http://purl.org/dc/elements/1.1/"
   xmlns:cc="http://creativecommons.org/ns#"
   xmlns:rdf="http://www.w3.org/1999/02/22-rdf-syntax-ns#"
   xmlns:svg="http://www.w3.org/2000/svg"
   xmlns="http://www.w3.org/2000/svg"
   xmlns:sodipodi="http://sodipodi.sourceforge.net/DTD/sodipodi-0.dtd"
   xmlns:inkscape="http://www.inkscape.org/namespaces/inkscape"
   width="16"
   height="16"
   viewBox="0 0 16 16"
   version="1.1"
   id="svg7"
   sodipodi:docname="insert-more-mark.svg"
   inkscape:version="0.92.4 5da689c313, 2019-01-14">
  <metadata
     id="metadata11">
    <rdf:RDF>
      <cc:Work
         rdf:about="">
        <dc:format>image/svg+xml</dc:format>
        <dc:type
           rdf:resource="http://purl.org/dc/dcmitype/StillImage" />
      </cc:Work>
    </rdf:RDF>
  </metadata>
  <sodipodi:namedview
     pagecolor="#ffffff"
     bordercolor="#666666"
     borderopacity="1"
     objecttolerance="10"
     gridtolerance="10"
     guidetolerance="10"
     inkscape:pageopacity="0"
     inkscape:pageshadow="2"
     inkscape:window-width="640"
     inkscape:window-height="480"
     id="namedview9"
     showgrid="false"
     inkscape:zoom="14.75"
     inkscape:cx="6.8135593"
     inkscape:cy="8"
     inkscape:window-x="0"
     inkscape:window-y="26"
     inkscape:window-maximized="0"
     inkscape:current-layer="svg7" />
  <defs
     id="defs3">
    <style
       id="current-color-scheme"
       type="text/css">
   .ColorScheme-Text { color:#5c616c; } .ColorScheme-Highlight { color:#5294e2; }
  </style>
  </defs>
  <path
     style="fill:#f1f6f8;fill-opacity:0.8509804"
     class="ColorScheme-Text"
     d="M 2.8398438 1.0058594 C 2.5588138 1.0495894 1.9960938 1.2398131 1.9960938 1.9394531 L 1.9960938 14.066406 C 1.9960938 14.999266 2.9960938 15 2.9960938 15 L 12.986328 15 C 13.985538 15 13.986328 14.066406 13.986328 14.066406 C 14.005128 14.023396 13.991328 7.1143812 13.986328 4.7382812 L 9.9902344 1.0058594 L 2.9960938 1.0058594 C 2.9960938 1.0058594 2.9335938 0.99130938 2.8398438 1.0058594 z M 2.9960938 6.9980469 L 12.996094 6.9980469 L 12.996094 8.9980469 L 2.9960938 8.9980469 L 2.9960938 6.9980469 z"
     id="path5" />
</svg>

<svg width="16" height="16" version="1.1" viewBox="0 0 16 16" xmlns="http://www.w3.org/2000/svg">
<defs>
<style id="current-color-scheme" type="text/css">.ColorScheme-Text { color:#5c616c; } .ColorScheme-Highlight { color:#5294e2; }</style>
</defs>
<path class="ColorScheme-Text" d="m2.8398 1.0059c-0.28103 0.04373-0.84375 0.23395-0.84375 0.93359v12.127c0 0.93286 1 0.93359 1 0.93359h9.9902c0.99921 0 1-0.93359 1-0.93359 0.0188-0.04301 5e-3 -6.952 0-9.3281l-3.9961-3.7324h-6.9941s-0.0625-0.01455-0.15625 0zm0.15625 5.9922h10v2h-10v-2z" fill="#f1f6f8" fill-opacity=".85098"/>
</svg>
